icons/home-circle-1.svg

<svg width="24" height="24" viewBox="0 0 24 24" fill="none" xmlns="http://www.w3.org/2000/svg">
<path fill-rule="evenodd" clip-rule="evenodd" d="M13.2447 4.69487C12.5299 4.05158 11.4629 4.05158 10.7481 4.69487L10.7419 4.70047L5.7607 9.08386C5.17991 9.67234 4.79639 10.4825 4.79639 11.2374V18.3374C4.79639 19.1232 5.4606 19.7874 6.2464 19.7874H9.29639V15.9375C9.29639 15.4521 9.38614 14.9937 9.54995 14.6297C9.63112 14.4493 9.7443 14.2614 9.90173 14.1075C10.0572 13.9555 10.31 13.7875 10.6464 13.7875H13.4464C13.7828 13.7875 14.0356 13.9555 14.1911 14.1075C14.3485 14.2614 14.4617 14.4493 14.5428 14.6297C14.7066 14.9938 14.7964 15.4521 14.7964 15.9375V19.7874H17.7464C18.6702 19.7874 19.2576 19.1024 19.199 18.3997L19.1964 18.3686V11.2374C19.1964 10.4337 18.8753 9.64677 18.2525 9.10183L18.2509 9.10043L13.2447 4.69487ZM10.0464 21.2875L10.0353 21.2874H6.2464C4.6322 21.2874 3.29639 19.9516 3.29639 18.3374V11.2374C3.29639 9.99927 3.90582 8.81731 4.71607 8.00707L4.73298 7.99016L9.74796 3.57697C11.0321 2.42423 12.9606 2.42421 14.2448 3.57693L19.2403 7.97296L19.2412 7.97377C20.2178 8.82879 20.6964 10.0415 20.6964 11.2374V18.3086C20.8167 19.9897 19.4116 21.2874 17.7464 21.2874H14.0575L14.0464 21.2875L14.0353 21.2874H10.0575L10.0464 21.2875ZM10.7964 15.9375V19.7874H13.2964V15.9375C13.2964 15.6532 13.2472 15.4285 13.1926 15.2875H10.9002C10.8456 15.4285 10.7964 15.6532 10.7964 15.9375ZM10.7964 9.53748C10.7964 8.84712 11.356 8.28748 12.0464 8.28748C12.7367 8.28748 13.2964 8.84712 13.2964 9.53748C13.2964 10.2278 12.7367 10.7875 12.0464 10.7875C11.356 10.7875 10.7964 10.2278 10.7964 9.53748ZM12.0464 6.78748C10.5276 6.78748 9.29639 8.01869 9.29639 9.53748C9.29639 11.0563 10.5276 12.2875 12.0464 12.2875C13.5652 12.2875 14.7964 11.0563 14.7964 9.53748C14.7964 8.01869 13.5652 6.78748 12.0464 6.78748Z" fill="black"/>
</svg>

<svg xmlns="http://www.w3.org/2000/svg" fill="none" viewBox="0 0 24 24">
  <path fill="#000" fill-rule="evenodd" d="M13.245 4.695a1.856 1.856 0 0 0-2.497 0l-.006.005L5.76 9.084c-.581.588-.965 1.399-.965 2.153v7.1c0 .786.665 1.45 1.45 1.45h3.05v-3.85c0-.485.09-.943.254-1.307.081-.18.194-.369.352-.523a1.07 1.07 0 0 1 .744-.32h2.8c.337 0 .59.168.745.32.157.154.27.342.352.523.164.364.253.822.253 1.307v3.85h2.95c.924 0 1.512-.685 1.453-1.387l-.003-.031v-7.132c0-.803-.32-1.59-.944-2.135L18.25 9.1l-5.006-4.405Zm-3.199 16.593h-3.8a2.97 2.97 0 0 1-2.95-2.95v-7.1c0-1.239.61-2.42 1.42-3.23l.017-.018 5.015-4.413a3.356 3.356 0 0 1 4.497 0l4.995 4.396h.001c.977.856 1.455 2.068 1.455 3.264v7.072c.12 1.68-1.284 2.978-2.95 2.978h-7.699Zm.75-5.35v3.85h2.5v-3.85c0-.285-.049-.51-.103-.65H10.9a1.86 1.86 0 0 0-.104.65Zm0-6.4a1.25 1.25 0 1 1 2.5 0 1.25 1.25 0 0 1-2.5 0Zm1.25-2.75a2.75 2.75 0 1 0 0 5.5 2.75 2.75 0 0 0 0-5.5Z" clip-rule="evenodd"/>
</svg>
